s.boot;
a = PatternPlayer.new
a.play_stop_button.valueAction_(0)
a.play_stop_button.states
SCButton
a.stop

a.tempo
a.tala.tempo
a.tala.play;a.routine.play;
a.stop
a.play

a.tala.play;
a.tala.stop;
a.tala.no_play

x = false;
y = true;

(x==true) || (y==true)

SCStaticText

a.tempo_text.getPropertyList
a.tempo_field
a.

x = SCStaticText
x.getPropertyList