s.boot
a = Tala.new
a.play
a.play
a.rupaka
a.stop
a.sCapu
a.play
a.stop;
a.drone
a.drone_amp = 3
a.tempo = 80

a.drone_note = 64
s.boot
b = PatternPlayer()
a.sounds
SCStaticText

a.stop

b.tala.play
 


s.mute
a.play
s.unmute
a.drone