s.boot;
a = PatternPlayer.new
a.pattern_field.enabled

x = PPTextField.new
w = Window("hi", Rect(400,400,400,400)).front
SCTextField(w, Rect(0,0,50,50))

TextField

3.asAscii

3.asAscii

PPTextField.dumpAllMethods;
SCTextField.dumpAllMethods;

s.boot
a = Tala.new

a.drone_note = 64
a.drone
a.drone_amp = 2.5
a.play
a.tempo = 120
a.stop
s.boot
s.mute
s.unmute

a.rupaka
a.stop
